X:1
T:Title
L:1/8
M:4/4
K:Eb
V:1 treble nm="Grand Piano"
V:1
 z4 z2[Q:1/4=100] G2 | E2 C2 G2 FG | A6 F2 | B2 BA AGBA | G6 G2 | c2 G2 F2 E2 | D6 G2 | %7
 G2 E2 D2 ED |[M:3/4] C6 |[M:1/4] c2 |[M:4/4] c3 =B c2 d2 | e6 c2 | d3 e dcc=B | c6 ed | %14
 dccB BAAG | A6 F2 | E2 D2 GFED | C6 z2 |] %18

